X: 285
T:The Little Stack of Barley
N: page 95
N: heptatonic
R:hornpipe
N: matches 1030
I:speed 250
E:7
M:C|
K:G
gf|"G"eged BedB|"D7"AGEG AcBA|"G"GFGA "Am"BA(3Bcd|\
"D7"eAAG A2(3Bcd|"G"efed BedB|
"D7"AGEG AcBA|"G"GFGA "D7"(3Bcd Ac|"G"BGGF G2:|\
A2|"D7"(3Bcd ef "G"g2fg|"D7"a2gf "G"edBd|
g2fg edBd|"D7"(3efg dB A3z|agfa "G"gfed|\
BAAG "D7"AcBA|"G"GFGA "D7"(3Bcd Ac|"G"BGGF G2:|
